assets/icons/download.svg

<svg width="28" height="36" viewBox="0 0 28 36" fill="none" xmlns="http://www.w3.org/2000/svg">
<path fill-rule="evenodd" clip-rule="evenodd" d="M25.3628 31.6951C25.3626 31.6951 25.3625 31.6951 25.3623 31.6951V2.0888C25.3623 1.85096 25.1569 1.65732 24.9047 1.65732H22.6869C22.5288 2.57908 21.8321 3.27891 21.0017 3.27891H13.7514C12.9214 3.27891 12.2242 2.57908 12.0662 1.65732H9.69553C9.52767 1.65732 9.39075 1.78641 9.39075 1.94468V7.43037C8.82511 7.44703 8.26872 7.49829 7.72388 7.58199V1.94468C7.72388 0.918148 8.60631 0.0856934 9.69553 0.0856934H24.9051C26.0787 0.0856934 27.0301 0.982693 27.0296 2.08924V30.8491C27.03 30.8491 27.0303 30.849 27.0306 30.8489V33.4493C27.0306 34.5559 26.0792 35.4529 24.9056 35.4529H9.84885C8.67524 35.4529 7.72388 34.5559 7.72388 33.4493V31.4013C8.26872 31.485 8.82511 31.5363 9.39075 31.553V33.4493C9.39075 33.6872 9.59612 33.8808 9.84838 33.8808H24.9051C25.1574 33.8808 25.3628 33.6872 25.3628 33.4493V31.6951ZM7.72388 28.5222C8.26427 28.632 8.82124 28.6998 9.39075 28.7217V23.5699L7.72388 21.9983V28.5222ZM7.72388 18.5008V10.4611C8.26427 10.3513 8.82124 10.2835 9.39075 10.2616V15.1945H8.89893C8.66543 15.1945 8.476 15.3732 8.476 15.5933V19.1831L7.82941 18.5734C7.79758 18.5434 7.76191 18.5192 7.72388 18.5008ZM20.1404 2.05078C20.1404 1.88765 20.0002 1.75591 19.8276 1.75591C19.6551 1.75591 19.5153 1.88765 19.5149 2.05078C19.5149 2.21347 19.6551 2.34566 19.8276 2.34566C20.0002 2.34566 20.1404 2.21347 20.1404 2.05078ZM18.5583 1.75591H14.6132C14.4406 1.75591 14.3004 1.88809 14.3004 2.05078C14.3004 2.21347 14.4406 2.34566 14.6132 2.34566H18.5583C18.7309 2.34566 18.8711 2.21347 18.8711 2.05078C18.8711 1.88809 18.7309 1.75591 18.5583 1.75591Z" fill="#303030"/>
<path d="M9.79778 10.2538C4.3864 10.2538 0 14.3895 0 19.4917C0 24.5938 4.3864 28.7296 9.79778 28.7296C15.2092 28.7296 19.5956 24.5938 19.5956 19.4917C19.5956 14.3895 15.2087 10.2538 9.79778 10.2538ZM13.6351 20.3356L11.3676 22.4736L10.0969 23.6716C9.93188 23.8273 9.66367 23.8273 9.49863 23.6716L8.22796 22.4736L5.96044 20.3356C5.79539 20.18 5.79539 19.9271 5.96044 19.7715L7.23111 18.5735C7.39616 18.4179 7.66436 18.4179 7.8294 18.5735L8.476 19.1831V15.5933C8.476 15.3732 8.66542 15.1946 8.89893 15.1946H10.6962C10.9297 15.1946 11.1191 15.3732 11.1191 15.5933V19.1831L11.7657 18.5735C11.9307 18.4179 12.1989 18.4179 12.364 18.5735L13.6346 19.7715C13.8002 19.9276 13.8002 20.18 13.6351 20.3356Z" fill="#303030"/>
</svg>

<svg xmlns="http://www.w3.org/2000/svg" width="28" height="36" fill="#303030" xmlns:v="https://vecta.io/nano"><path fill-rule="evenodd" d="M25.363 31.695V2.09c0-.238-.205-.43-.458-.43h-2.218c-.158.922-.855 1.622-1.685 1.622h-7.25c-.83 0-1.527-.7-1.685-1.622h-2.37c-.168 0-.305.13-.305.287V7.43c-.566.017-1.122.068-1.667.152V1.945c0-1.027.882-1.86 1.972-1.86h15.2c1.174 0 2.125.897 2.124 2.004v31.36c0 1.107-.95 2.004-2.125 2.004H9.85c-1.174 0-2.125-.897-2.125-2.004V31.4c.545.084 1.1.135 1.667.152v1.896c0 .238.205.43.458.43h15.057c.252 0 .458-.194.458-.43v-1.754zm-17.64-3.173a10.37 10.37 0 0 0 1.667.199V23.57l-1.667-1.572v6.524zm0-10.02v-8.04a10.37 10.37 0 0 1 1.667-.2v4.933H8.9c-.233 0-.423.18-.423.4v3.6l-.647-.6a.42.42 0 0 0-.106-.073zM20.14 2.05c0-.163-.14-.295-.313-.295s-.312.132-.313.295.14.295.313.295.313-.132.313-.295zm-1.582-.295h-3.945c-.173 0-.313.132-.313.295s.14.295.313.295h3.945c.173 0 .313-.132.313-.295s-.14-.295-.313-.295z"/><path d="M9.798 10.254C4.386 10.254 0 14.4 0 19.492s4.386 9.238 9.798 9.238 9.798-4.136 9.798-9.238-4.387-9.238-9.798-9.238zm3.837 10.082l-3.538 3.336a.44.44 0 0 1-.598 0L5.96 20.336c-.165-.156-.165-.41 0-.564l1.27-1.198c.165-.156.433-.156.598 0l.647.6v-3.6c0-.22.19-.4.423-.4h1.797c.234 0 .423.18.423.4v3.6l.647-.6c.165-.156.433-.156.598 0l1.27 1.198c.166.156.166.41 0 .564z"/></svg>
